X: 51
T: REELS: Banshee Set
T: Banshee / McMahon's
C: C: James McMahon / Trad.; S: Bothy Band / Joe Cooley / Various
C: Set Leaders: Olya, André
Z: Anton Zille ed., Oleg Naumov arr.; slainte / ceolachan / Jeremy at The Session
N: https://thesession.org/members/26966/sets/92367
R: Reel
M: 4/4
L: 1/8
Q: 1/2=100
K: Gmaj
|:"G"G3D EDB,D|"G"GFGB "D"d2 Bd|"C"eged BAGA|"C"BAGE "D"EDDE|
"G"G2 GD EDB,D|"G"GFGB "D"d2 Bd|"C"eged BAGA|1 "D"BAGE EDDE:|2 "D"BAGE ED D2||
|:"Am"eaag "D"efge|"G"dBBA "(D)"B2 Bd|"Em"eB ~B2 gB"D"fB|"Em"eBBA "D"B2 Bd|
"Am"eaag "D"efge|"G"dBBA "(D)"B2 Bd|"C (G)"eged "D/B"BAGA|1 "Am"BAGE "D"EDD2:|2 "Am (D)"BAGE "D"EDDE||
T: Cooley's
K: Edor
|:"Em"EBBA B/c/B EB|"Em"~B2 A/B/c dBAG|"D"FDAD BDAG|"D"FDFA dAFD|
"Em"EBBA ~B2 EB|"C"BA A/B/c defg|"Am"afef dBAF|1 "D"DEFD "Em"E/F/E ED:|2 "D"DEFD "Em"E3f||
|:"Em"eB~B2 eBfB|"Em"eB~B2 gedB|"D"A/B/A FA DAFA|"D"A/B/A FA defd|
"Em"eB B/c/B eBgf|"C"eB~B2 defg|"Am"afef dBAF|1 "D"DEFD "Em"E2 ef:|2 "D"DEFD "Em"E3D||
T: Drowsy Maggie
K: Edor
|:"Em"E2 BE dEBE|"Em"E2 BE "D"AFDF|"Em"E2 BE dEBE|"G"BABc "D"dAFD:||
"D"d2 fd "A"c2 ec|"D"defg afge|"D"d2 fd "A"c2 ec|"G"BABc "A"dAFA|
"D"d2 fd "A"c2 ec|"D"defg afge|"D"afge "A"fdec|"G"BABc "D"dAFD||

